X: 1960
T: Arthritic, The
R: jig
M: 6/8
K: Amajor
|:ce=g ged|cea =ged|ce=g geg|fda fed|
ce=g ged|cea =gfg|a=gf gfe|fae cAA:|
|:eaa aed|caa =gfg|eaa aAa|fda fed|
eaa aed|cea =ged|a=gf gfe|fea cAA:|
|:ccc ce=g|cea =ged|ccc cea|fda fed
|ccc ce=g|cea =gfg|a=gf gfe|fae cAA:|
|:a2 A Bac|cea =ged|a2 c da=g|fda fed|
a2 A Bac|cea =gfg|a=gf gfe|fae cAA:|

